azure-icons/Notification-Hubs.svg

<svg xmlns="http://www.w3.org/2000/svg" viewBox="0 0 18 18"><defs><linearGradient id="a" x1="9" y1=".81" x2="9" y2="21.28" gradientUnits="userSpaceOnUse"><stop offset="0" stop-color="#ffd70f"/><stop offset=".34" stop-color="#eeb309"/><stop offset=".77" stop-color="#dc8c03"/><stop offset="1" stop-color="#d57d01"/></linearGradient></defs><path d="M17.5 2.5v10.83a.58.58 0 01-.59.58h-4.52a.14.14 0 00-.14.14v1.75a.28.28 0 01-.45.22l-2.72-2.08H1.09a.58.58 0 01-.59-.58V2.5a.58.58 0 01.59-.58h15.82a.58.58 0 01.59.58z" fill="url(#a)"/><path d="M2.05 9l3 2.52a.29.29 0 00.47-.22v-1.1h11.96V8.5H2.23a.29.29 0 00-.18.5z" fill="#ffe452"/><path d="M16.24 6.46l-3.11-2.52a.29.29 0 00-.47.22v1.1H.5V7h15.56a.29.29 0 00.18-.54z" fill="#fff"/></svg>

<svg id="e5cb9f87-7b25-4ce4-8df5-8cd66afecc6d" xmlns="http://www.w3.org/2000/svg" width="18" height="18" viewBox="0 0 18 18"><defs><linearGradient id="bd9b1662-9bee-4ea8-9cee-787e4ccd4f18" x1="9" y1="0.81" x2="9" y2="21.28" gradientUnits="userSpaceOnUse"><stop offset="0" stop-color="#ffd70f" /><stop offset="0.34" stop-color="#eeb309" /><stop offset="0.77" stop-color="#dc8c03" /><stop offset="1" stop-color="#d57d01" /></linearGradient></defs><title>Icon-web-45</title><g><g><path d="M17.5,2.5V13.33a.58.58,0,0,1-.59.58H12.39a.14.14,0,0,0-.14.14V15.8a.28.28,0,0,1-.45.22L9.08,13.94l-.09,0H1.09a.58.58,0,0,1-.59-.58V2.5a.58.58,0,0,1,.59-.58H16.91A.58.58,0,0,1,17.5,2.5Z" fill="url(#bd9b1662-9bee-4ea8-9cee-787e4ccd4f18)" /><path d="M2.05,9l3,2.52a.29.29,0,0,0,.47-.22v-1.1H17.48V8.5H2.23A.29.29,0,0,0,2.05,9Z" fill="#ffe452" /><path d="M16.24,6.46,13.13,3.94a.29.29,0,0,0-.47.22v1.1H.5V7H16.06A.29.29,0,0,0,16.24,6.46Z" fill="#fff" /></g></g></svg>
